src/assets/img/dashboard/bitcoin_token.svg

<svg fill="none" height="24" viewBox="0 0 24 24" width="24" xmlns="http://www.w3.org/2000/svg"><circle cx="12" cy="12" fill="#f2a900" r="12"/><g fill="#fff"><path d="m16.6171 9.41654c-.1575-1.63807-1.5715-2.18703-3.3583-2.34359v-2.27315h-1.3827v2.21248c-.363 0-.7349.00685-1.1038.01468v-2.22716h-1.38263l-.00098 2.27119c-.29944.00587-.59398.01174-.88069.01174v-.00685l-1.90717-.00098v1.4776s1.0216-.01958 1.00398-.00098c.5607 0 .74271.32487.79555.60571v2.58917c.03914 0 .08905.002.14581.0098h-.14581l-.00097 3.6275c-.02447.1761-.12819.4569-.51961.4579.01761.0157-1.00496 0-1.00496 0l-.27497 1.6518h1.80051c.33466 0 .66443.0059.98735.0078l.00098 2.2986h1.38171v-2.2741c.3787.0078.7456.0107 1.1048.0107l-.001 2.2634h1.3826v-2.2937c2.3251-.1331 3.9543-.7192 4.1559-2.9033.1634-1.7584-.6635-2.5442-1.9835-2.8613.8034-.407 1.3054-1.1262 1.1879-2.32496zm-1.9355 4.91426c0 1.7173-2.9405 1.5226-3.8789 1.5226v-3.0462c.9384.0019 3.8789-.2672 3.8789 1.5236zm-.6439-4.2968c0 1.5627-2.4542 1.3797-3.235 1.3807v-2.76142c.7818 0 3.236-.24854 3.235 1.38072z"/><path d="m16.6171 9.41654c-.1575-1.63807-1.5715-2.18703-3.3583-2.34359v-2.27315h-1.3827v2.21248c-.363 0-.7349.00685-1.1038.01468v-2.22716h-1.38263l-.00098 2.27119c-.29944.00587-.59398.01174-.88069.01174v-.00685l-1.90717-.00098v1.4776s1.0216-.01958 1.00398-.00098c.5607 0 .74271.32487.79555.60571v2.58917c.03914 0 .08905.002.14581.0098h-.14581l-.00097 3.6275c-.02447.1761-.12819.4569-.51961.4579.01761.0157-1.00496 0-1.00496 0l-.27497 1.6518h1.80051c.33466 0 .66443.0059.98735.0078l.00098 2.2986h1.38171v-2.2741c.3787.0078.7456.0107 1.1048.0107l-.001 2.2634h1.3826v-2.2937c2.3251-.1331 3.9543-.7192 4.1559-2.9033.1634-1.7584-.6635-2.5442-1.9835-2.8613.8034-.407 1.3054-1.1262 1.1879-2.32496zm-1.9355 4.91426c0 1.7173-2.9405 1.5226-3.8789 1.5226v-3.0462c.9384.0019 3.8789-.2672 3.8789 1.5236zm-.6439-4.2968c0 1.5627-2.4542 1.3797-3.235 1.3807v-2.76142c.7818 0 3.236-.24854 3.235 1.38072z"/></g></svg>

<svg width="24" height="24" viewBox="0 0 24 24" fill="none" xmlns="http://www.w3.org/2000/svg">
<circle cx="12" cy="12" r="12" fill="#F2A900"/>
<path d="M16.6171 9.41654C16.4596 7.77847 15.0456 7.22951 13.2588 7.07295V4.7998H11.8761V7.01228C11.5131 7.01228 11.1412 7.01913 10.7723 7.02696V4.7998H9.38967L9.38869 7.07099C9.08925 7.07686 8.79471 7.08273 8.508 7.08273V7.07588L6.60083 7.0749V8.5525C6.60083 8.5525 7.62243 8.53292 7.60481 8.55152C8.16551 8.55152 8.34752 8.87639 8.40036 9.15723V11.7464C8.4395 11.7464 8.48941 11.7484 8.54617 11.7562H8.40036L8.39939 15.3837C8.37492 15.5598 8.2712 15.8406 7.87978 15.8416C7.89739 15.8573 6.87482 15.8416 6.87482 15.8416L6.59985 17.4934H8.40036C8.73502 17.4934 9.06479 17.4993 9.38771 17.5012L9.38869 19.7998H10.7704V17.5257C11.1491 17.5335 11.516 17.5364 11.8752 17.5364L11.8742 19.7998H13.2568V17.5061C15.5819 17.373 17.2111 16.7869 17.4127 14.6028C17.5761 12.8444 16.7492 12.0586 15.4292 11.7415C16.2326 11.3345 16.7346 10.6153 16.6171 9.41654ZM14.6816 14.3308C14.6816 16.0481 11.7411 15.8534 10.8027 15.8534V12.8072C11.7411 12.8091 14.6816 12.54 14.6816 14.3308ZM14.0377 10.034C14.0377 11.5967 11.5835 11.4137 10.8027 11.4147V8.65328C11.5845 8.65328 14.0387 8.40474 14.0377 10.034Z" fill="white"/>
<path d="M16.6171 9.41654C16.4596 7.77847 15.0456 7.22951 13.2588 7.07295V4.7998H11.8761V7.01228C11.5131 7.01228 11.1412 7.01913 10.7723 7.02696V4.7998H9.38967L9.38869 7.07099C9.08925 7.07686 8.79471 7.08273 8.508 7.08273V7.07588L6.60083 7.0749V8.5525C6.60083 8.5525 7.62243 8.53292 7.60481 8.55152C8.16551 8.55152 8.34752 8.87639 8.40036 9.15723V11.7464C8.4395 11.7464 8.48941 11.7484 8.54617 11.7562H8.40036L8.39939 15.3837C8.37492 15.5598 8.2712 15.8406 7.87978 15.8416C7.89739 15.8573 6.87482 15.8416 6.87482 15.8416L6.59985 17.4934H8.40036C8.73502 17.4934 9.06479 17.4993 9.38771 17.5012L9.38869 19.7998H10.7704V17.5257C11.1491 17.5335 11.516 17.5364 11.8752 17.5364L11.8742 19.7998H13.2568V17.5061C15.5819 17.373 17.2111 16.7869 17.4127 14.6028C17.5761 12.8444 16.7492 12.0586 15.4292 11.7415C16.2326 11.3345 16.7346 10.6153 16.6171 9.41654ZM14.6816 14.3308C14.6816 16.0481 11.7411 15.8534 10.8027 15.8534V12.8072C11.7411 12.8091 14.6816 12.54 14.6816 14.3308ZM14.0377 10.034C14.0377 11.5967 11.5835 11.4137 10.8027 11.4147V8.65328C11.5845 8.65328 14.0387 8.40474 14.0377 10.034Z" fill="white"/>
</svg>
